X: 13881
T: Fox On The Prowl, The
R: reel
M: 4/4
K: Dmajor
A|d2fd eA~A2|BAFA dAFB|ABde f2af|~g2fg edBA|
d2fd eA~A2|BAFA dAFB|ABde f2af|edef d3:|
|:e|f2af ~d3e|f2af eA~A2|BAFA defa|b2af fe~e2|
bf~f2 af~f2|dfaf eA~A2|BAFA dfaf|edef d3:|

